X:1
T:The Bold Deserter
M:4/4
L:1/4
K:G
 D| G G G3/2 G/2| A A BB/2-c/2| d3/2 B/2c/2-B/2 A| G2 z| D| G3/2 D/2 G A|\
 B/2 B3/2 c A3/4- B/4| d3/2 B/2 c/4 c3/4 B| G2 z| B/2c/2| d d d/2c/2 B|\
 c c/2c/2 d B| A/2 G3/2G/2-F/2 E| D2 z| D| G GA/2-G/2 A| B B cA/2-B/2|\
 d3/2 B/2 cB/2-A/2| G2 z||
